teeny/outline/thumb-up.svg

<svg width="15" height="15" viewBox="0 0 15 15" fill="none" xmlns="http://www.w3.org/2000/svg">
<path d="M3.5 5.49999L3.07817 5.23156L3 5.35439V5.49999H3.5ZM6.19761 1.2609L6.61944 1.52934L6.19761 1.2609ZM8.86455 2.7709L8.41734 2.54729V2.54729L8.86455 2.7709ZM7.5 5.49999L7.05279 5.27639C6.97529 5.43138 6.98357 5.61545 7.07467 5.76286C7.16578 5.91027 7.32671 5.99999 7.5 5.99999V5.49999ZM14.5 10.5L14.9 10.8L15 10.6667V10.5H14.5ZM12.1 13.7L12.5 14L12.1 13.7ZM8.28158 0.768941L8.53883 0.340194L8.53883 0.340194L8.28158 0.768941ZM0 4.99999V15H1V4.99999H0ZM3.92183 5.76843L6.61944 1.52934L5.77577 0.992463L3.07817 5.23156L3.92183 5.76843ZM8.41734 2.54729L7.05279 5.27639L7.94721 5.7236L9.31176 2.9945L8.41734 2.54729ZM7.5 5.99999H12.5V4.99999H7.5V5.99999ZM14 7.49999V10.5H15V7.49999H14ZM14.1 10.2L11.7 13.4L12.5 14L14.9 10.8L14.1 10.2ZM10.5 14H5.5V15H10.5V14ZM4 12.5V5.49999H3V12.5H4ZM12.5 5.99999C13.3284 5.99999 14 6.67157 14 7.49999H15C15 6.11928 13.8807 4.99999 12.5 4.99999V5.99999ZM5.5 14C4.67157 14 4 13.3284 4 12.5H3C3 13.8807 4.11929 15 5.5 15V14ZM8.02433 1.19769C8.48782 1.47578 8.65906 2.06384 8.41734 2.54729L9.31176 2.9945C9.78718 2.04368 9.45039 0.887131 8.53883 0.340194L8.02433 1.19769ZM11.7 13.4C11.4167 13.7777 10.9721 14 10.5 14V15C11.2869 15 12.0279 14.6295 12.5 14L11.7 13.4ZM6.61944 1.52934C6.92046 1.05631 7.54354 0.909215 8.02433 1.19769L8.53883 0.340194C7.59324 -0.227155 6.3678 0.0621342 5.77577 0.992463L6.61944 1.52934Z" fill="black"/>
</svg>

<svg viewBox="0 0 15 15" xmlns="http://www.w3.org/2000/svg"><path d="M3.5 5.49l-.43-.27 -.08.12v.14h.5Zm2.69-4.24l.42.26 -.43-.27Zm2.66 1.51l-.45-.23v0l.44.22ZM7.48 5.48l-.45-.23c-.08.15-.07.33.02.48 .09.14.25.23.42.23v-.5Zm7 5l.4.3 .1-.14v-.17h-.5Zm-2.4 3.2l.4.3 -.4-.3ZM8.26.74l.25-.43v0l-.26.42ZM-.03 4.97v10h1V4.96h-1Zm3.92.76l2.69-4.24 -.85-.54 -2.7 4.23 .84.53ZM8.38 2.5L7.01 5.22l.89.44 1.36-2.73 -.9-.45Zm-.92 3.45h5v-1h-5v1Zm6.5 1.5v3h1V7.44h-1Zm.1 2.7l-2.4 3.2 .8.6 2.4-3.2 -.8-.6Zm-3.6 3.8h-5v1h5v-1Zm-6.5-1.5V5.44h-1v7h1Zm8.5-6.51c.82 0 1.5.67 1.5 1.5h1c0-1.39-1.12-2.5-2.5-2.5v1Zm-7 8c-.83 0-1.5-.68-1.5-1.5h-1c0 1.38 1.11 2.5 2.5 2.5v-1ZM7.98 1.13c.46.27.63.86.39 1.34l.89.44c.47-.96.13-2.11-.78-2.66l-.52.85Zm3.67 12.2c-.29.37-.73.6-1.2.6v1c.78 0 1.52-.38 2-1l-.8-.6ZM6.56 1.45c.3-.48.92-.63 1.4-.34l.51-.86C7.52-.32 6.29-.03 5.7.9l.84.53Z"/></svg>
